X:31
T: Tennessee Blues
C: Bill Monroe
S: MandoZine TablEdit Archives
Z: TablEdited by Mike Stangeland for MandoZine
L: 1/8
Q: 540
M: 4/4
K: A
 z2 A2 c2 e2 | "A"aa aa aa aa | =gf e2 =cB A2 | aa aa aa aa | e=c B=c A4 |
 aa aa aa aa | =gf e2 =cB A2 | "A7"aa aa aa aa | e=c B=c A2 E=F |
 "D"F2 AB =cB A2 | F2 AB =cB AB | =cB =cB =cB AF | "A"E2 AA AA AA |
 A2 EF =GE FD | "E"E2 EF GB cB | e2 ee e2 B=c | ce cB AF EF |
 "A"A2 AA AA AA | A2 A2 c2 e2 | aa aa aa aa | =gf e2 =cB A2 |
 aa aa aa aa | e=c B=c A4 | aa aa aa =gb | a=g ed =c^c AB |
 =c^c =c^c A=G EF | "A7"=GA Bd cB A2 | "D"F2 AB =cB A2 | F2 AB =cB AB |
 =cB =cB =cB AF | "A"E2 AA AA AA | A2 EF =GE FD | "E"E2 EF GB cB |
 e2 de ee ee | =gf =gf ed =c^c | "A"A2 EF =GF EC | A,2 A,B, CE CB, |
 =G,A, A,B, A,2 A,A, | A,2 A,B, CB, A,2 | C2 CC C2 CC | C2 CC CB, A,2 |
 E2 EE E2 EE | E2 EE D2 C2 | "A7"=G2 =G=G =G=G =G=G | =G8 |
 "D"F2 AB =cB A2 | F2 AB =cB Ac | ce3 cB AF | "A"E2 AA AA AA |
  A2 ef =gf =ge | "E"E2 EF GB cB | e2 de ee ee | =gf =gf ed =c^c | "A"A2 EF =GF EC | A,8 |
